apps/mobile/assets/icons/phosphor/paint-roller.svg

<svg
  height="32"
  viewBox="0 0 256 256"
  width="32"
  xmlns="http://www.w3.org/2000/svg"
>
  <path
    d="m232 88h-16v-24a16 16 0 0 0 -16-16h-152a16 16 0 0 0 -16 16v24h-16a8 8 0 0 0 0 16h16v24a16 16 0 0 0 16 16h152a16 16 0 0 0 16-16v-24h16v50l-100.4 28.65a16.07 16.07 0 0 0 -11.6 15.35v34a8 8 0 0 0 16 0v-34l100.4-28.68a16.07 16.07 0 0 0 11.6-15.32v-50a16 16 0 0 0 -16-16zm-32 40h-152v-64h152z"
  />
</svg>

<svg xmlns="http://www.w3.org/2000/svg" width="32" height="32" fill="#000000" viewBox="0 0 256 256"><path d="M232,88H216V64a16,16,0,0,0-16-16H48A16,16,0,0,0,32,64V88H16a8,8,0,0,0,0,16H32v24a16,16,0,0,0,16,16H200a16,16,0,0,0,16-16V104h16v50L131.6,182.65A16.07,16.07,0,0,0,120,198v34a8,8,0,0,0,16,0V198l100.4-28.68A16.07,16.07,0,0,0,248,154V104A16,16,0,0,0,232,88Zm-32,40H48V64H200v64Z"></path></svg>
